theme/essential/pix_core/i/calendar.svg

<!DOCTYPE svg PUBLIC "-//W3C//DTD SVG 1.1//EN" "http://www.w3.org/Graphics/SVG/1.1/DTD/svg11.dtd" [
	<!ENTITY ns_flows "http://ns.adobe.com/Flows/1.0/">
]><svg xmlns="http://www.w3.org/2000/svg" width="16" height="16" viewBox="0 0 16 16" preserveAspectRatio="xMinYMid meet" overflow="visible"><path d="M14 1h-2v1.5c0 .8-.7 1.5-1.5 1.5s-1.5-.7-1.5-1.5v-1.5h-3v1.5c0 .8-.7 1.5-1.5 1.5s-1.5-.7-1.5-1.5v-1.5h-2c-.6 0-1 .4-1 1v13c0 .6.4 1 1 1h13c.6 0 1-.4 1-1v-13c0-.6-.4-1-1-1zm-10 13h-2v-2h2v2zm0-3h-2v-2h2v2zm0-3h-2v-2h2v2zm3 6h-2v-2h2v2zm0-3h-2v-2h2v2zm0-3h-2v-2h2v2zm3 6h-2v-2h2v2zm0-3h-2v-2h2v2zm0-3h-2v-2h2v2zm3 6h-2v-2h2v2zm0-3h-2v-2h2v2zm0-3h-2v-2h2v2zm-8-5.5c0 .3-.2.5-.5.5s-.5-.2-.5-.5v-2c0-.3.2-.5.5-.5s.5.2.5.5v2zm6 0c0 .3-.2.5-.5.5s-.5-.2-.5-.5v-2c0-.3.2-.5.5-.5s.5.2.5.5v2z" fill="#999"/></svg>

<?xml version="1.0" encoding="utf-8"?>
<!-- Generator: Adobe Illustrator 15.1.0, SVG Export Plug-In  -->
<!DOCTYPE svg PUBLIC "-//W3C//DTD SVG 1.1//EN" "http://www.w3.org/Graphics/SVG/1.1/DTD/svg11.dtd" [
	<!ENTITY ns_flows "http://ns.adobe.com/Flows/1.0/">
]>
<svg version="1.1"
	 xmlns="http://www.w3.org/2000/svg" xmlns:xlink="http://www.w3.org/1999/xlink" xmlns:a="http://ns.adobe.com/AdobeSVGViewerExtensions/3.0/"
	 x="0px" y="0px" width="16px" height="16px" viewBox="0 0 16 16" style="overflow:visible;enable-background:new 0 0 16 16;"
	 xml:space="preserve" preserveAspectRatio="xMinYMid meet">
<defs>
</defs>
<path style="fill:#29a1c4;" d="M14,1h-2v1.5C12,3.3,11.3,4,10.5,4S9,3.3,9,2.5V1H6v1.5C6,3.3,5.3,4,4.5,4S3,3.3,3,2.5V1H1
	C0.4,1,0,1.4,0,2v13c0,0.6,0.4,1,1,1h13c0.6,0,1-0.4,1-1V2C15,1.4,14.6,1,14,1z M4,14H2v-2h2V14z M4,11H2V9h2V11z M4,8H2V6h2V8z
	 M7,14H5v-2h2V14z M7,11H5V9h2V11z M7,8H5V6h2V8z M10,14H8v-2h2V14z M10,11H8V9h2V11z M10,8H8V6h2V8z M13,14h-2v-2h2V14z M13,11h-2
	V9h2V11z M13,8h-2V6h2V8z M5,2.5C5,2.8,4.8,3,4.5,3l0,0C4.2,3,4,2.8,4,2.5v-2C4,0.2,4.2,0,4.5,0l0,0C4.8,0,5,0.2,5,0.5V2.5z M11,2.5
	C11,2.8,10.8,3,10.5,3l0,0C10.2,3,10,2.8,10,2.5v-2C10,0.2,10.2,0,10.5,0l0,0C10.8,0,11,0.2,11,0.5V2.5z"/>
</svg>
